X: 3
T: POLKA 3
M: 4/4
L: 1/8
Q:1/4=120
K:F 
|:CFED CAAG/2A/2|BGGF/2G/2 ABc3/2 z/2 |CFED CAAG/2A/2|BGGF/2G/2 AGF3/2 z
/2:|
|:cAAF/2A/2 cAAF/2A/2|BAGF/2G/2 ABc3/2 z/2 |cAAF/2A/2 cAAF/2A/2|BAGF/2G/
2 AGF3/2:|
